X:8
T:Walzer 1840 D (tinwhistle in D) solo
T:wz08933 (Hanny Christen)
%%MIDI program 72   % 111 /74 / 79=whistle
M:3/4
R:waltz
M:3/4
L:1/4
K:D transpose=12
A |: (f3 | f)e/2d/2 c/2B/2 | (A3 | F)>(F g/2f/2) | e>^de | zz/2(f/2 g/2f/2) | d>cd | zF/2A/2d | 
(f3 | f)e/2d/2 c/2B/2 | (A3 | F>)(A B/2A/2) | ^G>Be | f/2e/2 e/2d/2 d/2^G/2 | A2A |1 zF/2A/2d :|2 Adc || 
|: B2g | z/2B/2 g>B | A2f | z/2A/2f>d | d/2c/2 c/2d/2e | z/2e/2 f>e | e/2d/2 d/2e/2f | zdc | 
B2g | z/2B/2 g>B | A2f | z/2A/2f>d | A/2B/2 c/2d/2e | zgf | dA/2F/2d |1 zdc :|2 dzz |]
% Aug 7, 2016

